X:1
T:Title
%%score 1 { 2 | 3 }
L:1/8
Q:1/4=110
M:4/4
K:Eb
V:1 treble nm="Grand Piano, Soprano"
V:2 bass nm="Choir Pad, Penfield, Jason Noble Pierce"
V:3 bass 
V:1
 [GB]2 [Ge]2- [Ge][Ee] [Ed]2 | [Ec]2 [GB]4 [EG]2 | E>F [EG]2 [EB]2 [DG]2 | [DF]2 [B,E]6 | %4
w: By~Jason~Noble~Pierce,~1908 * * * *||||
 [GB]2 [Ge]2- [Ge][Ge] [Gd]2 | [Gd]2 [Gc]4 G2 | [GB]2 F2 [Dd]2 [Ed]2- | [Ed][Ec] [DB]6 | %8
w: ||||
 [B,B]2 [CB]2 [DB]2 [GB]2 | [FB]2 [FB]>E [EB]4 | [Cc]2 [Dc]2 [=Ec]2 [Ac]2- | [Ac][Gc] [Fc]6 | %12
w: ||||
 [Ac]2 [Ad]2- [Ad][Ad] [Ac]2 | [AB]2 [Ge]2 G2 [GB]2 | [FA]2 [EG]2 [CG]2 [DG]2- | [DG][DF] [B,E]6- | %16
w: ||||
 [B,E]2 z2 z4 |] %17
w: |
V:2
 B,2 B,2- B,B, A,2 | C2 E4 B,2 | =A,2 B,2 G,2 _A,2 | A,2 G,6 | B,2[K:treble] C2- CC =B,2 | %5
 =B,2 C4 C2 | _D2 =D2[K:bass] B,2 =A,2- | A,=A, F,6 | A,2 A,2 A,2 B,2 | A,2 A,>G, G,4 | %10
 B,2 B,2 B,2[K:treble] C2- | CB, A,6 | C2[K:bass] B,2- B,B, B,2 | B,2 B,2[K:treble] _D2 D2 | %14
 C2 B,2 =A,2[K:bass] _A,2- | A,A, G,6- | G,2 z2 z4 |] %17
V:3
 E,2 E,2- E,G, z2 | A,2 E,4 E,2 | C,2 B,,2 B,,2 B,,2 | B,,2 E,6 | E,2 C,2- C,C, D,2 | D,2 E,4 E,2 | %6
 =E,2 F,2 F,2 F,2- | F,F, B,,6 | B,,2 C,2 D,2 G,2 | F,2 F,>E, E,4 | C,2 D,2 =E,2 A,2- | A,G, F,6 | %12
 F,2 B,,2- B,,B,, C,2 | D,2 E,4 G,,2 | A,,2 B,,2 B,,2 B,,2- | B,,B,, E,6- | E,2 z2 z4 |] %17

